assets/images/product/quote-before.svg

<svg width="22" height="17" viewBox="0 0 22 17" fill="none" xmlns="http://www.w3.org/2000/svg">
<path d="M5.71865 8.33591C9.01529 7.48263 10.6972 10.1737 10.6972 12.4054C10.6972 14.6371 8.74618 17 5.65138 17C2.01835 17 0 14.112 0 10.6988C0 5.97297 2.69113 1.83784 8.54434 0L10.0917 2.10039C6.86239 3.34749 5.04587 5.38224 5.04587 7.94208C5.04587 8.33591 5.44954 8.40155 5.71865 8.33591ZM16.9541 8.27027C20.2508 7.41699 22 10.1737 22 12.4054C22 14.6371 19.9817 17 16.8869 17C13.2538 17 11.2355 14.112 11.2355 10.6988C11.2355 5.97297 13.9939 1.83784 19.7798 0L21.3945 2.10039C18.0979 3.34749 16.2813 5.38224 16.2813 7.94208C16.2813 8.27027 16.685 8.3359 16.9541 8.27027Z" fill="#BA4A21"/>
</svg>

<svg xmlns="http://www.w3.org/2000/svg" width="22" height="17" fill="none"><path fill="#BA4A21" d="M5.719 8.336c3.296-.853 4.978 1.838 4.978 4.07 0 2.231-1.95 4.594-5.046 4.594C2.018 17 0 14.112 0 10.699 0 5.973 2.691 1.838 8.544 0l1.548 2.1c-3.23 1.247-5.046 3.282-5.046 5.842 0 .394.404.46.673.394m11.235-.066C20.251 7.417 22 10.174 22 12.405 22 14.637 19.982 17 16.887 17c-3.633 0-5.651-2.888-5.651-6.301 0-4.726 2.758-8.861 8.544-10.699l1.614 2.1c-3.296 1.247-5.113 3.282-5.113 5.842 0 .328.404.394.673.328"/></svg>
